X:1
T:Title
%%score { 1 | 2 }
L:1/8
M:3/4
K:Ab
V:1 treble nm="Grand Piano"
V:2 bass 
V:1
 z2 z2[Q:1/4=100] [CA][DB] | [Ec]2 [EA]2 FA | E4 cd | e2 c2 BA | B4 [EA][EB] | %5
 [Ec]2 [A,EA]2 [A,DF][A,DA] | [CE]4 [A,EA][A,EG] | [A,DF][DFB] [CEA]2 [B,DG]2 |[M:2/4] [A,CA]4 | %9
[M:1/4] cd |[M:3/4] e2 e2 [Bd][Ac] | [GB]4 Bc | d2 d2 cB | [Ec]4 [CA][DB] | %14
 [Ec]2 [A,EA]2 [A,DF][A,DA] | [CE]4 [A,EA][A,EG] | [A,DF][DFB] [CEA]2 [B,DG]2 |[M:2/4] [A,CA]4 |] %18
V:2
 z2 z2 [A,,E,][A,,E,] | [A,,A,]2 [C,A,]2 [D,A,D][F,A,D] | [A,C]4 [A,E][A,B,E] | %3
 [A,CA]2 [A,E]2[K:bass] [G,B,E][F,B,=D] | [E,G,E]4 [C,A,][B,,G,] | [A,,A,]2 C,2 D,F, | A,4 C,C, | %7
 D,B,, E,2 E,2 |[M:2/4] A,,4 |[M:1/4][K:treble] [A,E][A,B,E] | %10
[M:3/4] [A,CA]2 [A,CA]2 [G,E][K:bass][A,E] | [E,E]4 [E,G,E][E,A,E] | %12
 [E,B,E]2 [E,B,E]2 [E,A,E][E,G,E] | [A,,A,]4 [A,,E,][A,,E,] | [A,,A,]2 C,2 D,F, | A,4 C,C, | %16
 D,B,, E,2 E,2 |[M:2/4] A,,4 |] %18

